X:464
T:Reel 464
M:4/4
K:Amaj
L:1/8
ED|:C>A, (3A,A,A, A,B,A,F,|E,F,A,C DCB,A,|C>A, (3A,A,A, E,F,F,2|E,F,A,B, CA,A,2:|C>E (3EEE F>A (3FGA |ECAC DB,B,2|C>E (3EEE FGAF|ECB,D CA,A,2|C>E (3EEE FGAF|ECEC B,F,F,2|E,>A, (3E,E,G, A,B,CE| (3FGA ED CA,A,2|
